X:1
%
T:Fiddich Bridge
C:Alexander Walker
M:C
L:1/8
R:Strathspey
B:Walker - Collection of Strathspeys, Reels, Marches etc. (1866, p. 62)
Z:AK/Fiddler's Companion
F:http://digital.nls.uk/special-collections-of-printed-music/archive/105875796?mode=zoom
K:G
d|g>bg>d c<e d2|g>ag>B E<AF>D|g>ag>d c<ed>c|
B>GA>F (G2 G>)d|g>ag>d c>ed>B|c>AB>G A>GF>D|
B,>G,B,>D C>A,C>D|E<A(F>D) (G2G)||g|b>gd>g B>gd>g|
b>gd>g E>AF>D|b>gd>g B>gd>B|E>AF>D (G2G>)g|
b>gd>g B>gd>g|c>aB>g A>GF>D|B,>G,A,>D C>A,C>D|E<AF>D (G2G)||

